!!!COA:	Josquin des Prez
!!!CDT:	~1450-1521/08/27
!!!OPR:	Missa Ad fugam
!!!ONM:	3
!!!OTL:	Credo
!!!AGN:	Mass; Credo
!!!SCT:	NJE 12.1
!!!SCA:	New Josquin Edition 12.1
!!!voices:	4
!!!voices-OPR:	4
**kern	**kern	**kern	**kern
*staff4	*staff3	*staff2	*staff1
*Ivox	*Ivox	*Ivox	*Ivox
*I"Bassus	*I"Tenor	*I"Altus	*I"Superius
*I'B	*I'T	*I'A	*I'S
*>[A,B]	*>[A,B]	*>[A,B]	*>[A,B]
*>A	*>A	*>A	*>A
*clefF4	*clefGv2	*clefGv2	*clefG2
*k[b-]	*k[b-]	*k[b-]	*k[]
*M3/1	*M3/1	*M3/1	*M3/1
*met(O)	*met(O)	*met(O)	*met(O)
=1-	=1-	=1-	=1-
!	!	!	!LO:TX:X=-40:Z=8:t=[Canon at the lower fifth]
0G	0.r	1.G	0g
.	.	2A/	.
1E	.	2.B-\	1g
.	.	4c\	.
=2	=2	=2	=2
1.F	0c	0A	2a/
.	.	.	1a
2G\	.	.	4g/
.	.	.	4f/
1A	1c	2r	1e
.	.	2A/	.
=3	=3	=3	=3
2r	2d\	2.B-\	1d
1D	1d	.	.
.	.	4A/	.
.	.	2F/	1r
1G	4c\	2G/	.
.	4B-\	.	.
.	1A	1D	1a
2F#i\	.	.	.
=4	=4	=4	=4
1G	1G	2r	1b-i
.	.	1d	.
2D\	1r	.	2a/
1F	.	2c\	1a
.	1d	2A/	.
4E\	.	2B-\	2g/
4D\	.	.	.
=5	=5	=5	=5
1C	1e-	3c\V	1g
.	.	3G/	.
.	.	3A/Z	.
1BB-	2d\	0B-	1r
.	1d	.	.
1r	.	.	2f/
.	2c\	.	2g/
=6	=6	=6	=6
0F	1c	2.A/	0a
.	.	4B-\	.
.	1r	2.c\	.
.	.	4F/	.
1E	2B-\	1G	1g
.	2c\	.	.
=7	=7	=7	=7
0D	0d	0A	2f/
.	.	.	2.a/
.	.	.	4g/
.	.	.	2f/
1A	1c	2r	1e
.	.	2c\	.
=8	=8	=8	=8
1B-	2B-\	2d\	2d/
.	2.d\	2G/	2.b-i\
1G	.	2.B-\	.
.	4c\	.	4a/
.	2B-\	.	1g
.	.	4c\	.
1D	1A	1d	.
.	.	.	2f#i/
=9	=9	=9	=9
2.E-i\	2G/	2B-\	0g
.	2.e-i\	2c\	.
4F\	.	.	.
2G\	.	2B-\	.
.	4d\	.	.
2C/	1c	1G	.
1D	.	.	1r
.	2Bni\	2F/	.
=10	=10	=10	=10
0C	0c	1G	0.r
.	.	1r	.
1r	1r	1c	.
=11	=11	=11	=11
1G	0.r	2B-\	0.r
.	.	1d	.
2B-\	.	.	.
2A\	.	2c\	.
2G\	.	2B-\	.
[2d\	.	2G/	.
=12	=12	=12	=12
2d\]	0.r	1A	0.r
2c\	.	.	.
2B-\	.	2G/	.
2G\	.	2d\	.
1A	.	2c\	.
.	.	[2e-i\	.
=13	=13	=13	=13
2.G\	0.r	2e-\]	0.r
.	.	1d	.
4F\	.	.	.
2D\	.	.	.
1G	.	4c\	.
.	.	4B-\	.
.	.	2A/	.
2F\	.	[2d\	.
=14	=14	=14	=14
2G\	0.r	4d\]	0.r
.	.	4c\	.
2.d\	.	4B-\	.
.	.	4A/	.
.	.	2B-\	.
4c\	.	.	.
4B-\	.	2G/	.
4A\	.	.	.
2B-\	.	2r	.
2G\	.	[2d\	.
=15	=15	=15	=15
2D\	0.r	2d\]	0.r
1G	.	2e\	.
.	.	2d\	.
2B-\	.	1g	.
1A	.	.	.
.	.	2f#i\	.
=16	=16	=16	=16
2.G\	0.r	0.g	0.r
4A\	.	.	.
2B-\	.	.	.
2.c\	.	.	.
4B-\	.	.	.
2G\	.	.	.
=17	=17	=17	=17
2A\	0.r	0.f	0.r
2.B-\	.	.	.
4A\	.	.	.
2.F\	.	.	.
4G\	.	.	.
4A\	.	.	.
4B-\	.	.	.
=18	=18	=18	=18
2c\	0.r	0e	0.r
2.A\	.	.	.
4G\	.	.	.
2E\	.	.	.
2F\	.	1d	.
[2G\	.	.	.
=19	=19	=19	=19
4G\]	0.r	1.d	0.r
4F\	.	.	.
2.D\	.	.	.
4E\	.	.	.
4F\	.	4c\	.
4G\	.	4B-\	.
1A	.	1c	.
=20	=20	=20	=20
2r	0.r	1d	0.r
2D\	.	.	.
2E\	.	2r	.
2F\	.	2A/	.
2G\	.	2B-\	.
2E\	.	2c\	.
=21	=21	=21	=21
2F\	0.r	2d\	0.r
2G\	.	2e-i\	.
2A\	.	2c\	.
1B-	.	1d	.
4A\	.	4c\	.
4G\	.	4B-\	.
=22	=22	=22	=22
4A\	0.r	4c\	0.r
4G\	.	4B-\	.
4F\	.	4A/	.
4E\	.	4G/	.
2F\	.	2A/	.
1G	.	2G/	.
.	.	1A	.
2F#i\	.	.	.
=23	=23	=23	=23
2G\	0.r	2G/	0.r
2.C/	.	2.e-i\	.
4D\	.	4d\	.
4E\	.	1c	.
4F\	.	.	.
1D	.	.	.
.	.	2Bni\	.
=24	=24	=24	=24
1.C	0.r	1.c	1.e
2D\	.	4B-\	2f/
.	.	4A/	.
1E	.	1G	1g
=25	=25	=25	=25
2F\	1.A	2F/	1.a
2D\	.	2.f\	.
2F\	.	.	.
.	.	4e\	.
2G\	2B-\	2d\	2g/
1E	1c	1G	1g
=26	=26	=26	=26
2r	1.d	1A	2.f/
2.D\	.	.	.
.	.	.	4g/
.	.	2r	2a/
4E\	.	.	.
4F\	2c\	2.A/	2g/
4G\	.	.	.
1A	1c	.	1e
.	.	4B-\	.
.	.	2c\	.
=27	=27	=27	=27
2D\	2.B-\	1d	2.d/
2.B-\	.	.	.
.	4c\	.	4e/
.	2d\	2B-\	2f/
4A\	.	.	.
1G	2c\	2d\	2g/
.	1A	2e\	2a/
2F\	.	2f\	2cc\
=28	=28	=28	=28
2.G\	2.G/	2d\	2b-i\
.	.	1g	1dd
4F\	4A/	.	.
2G\	2B-\	.	.
2A\	2c\	2e\	4cc\
.	.	.	4b-i\
1D	2d\	2f\	1a
.	2f\	2d\	.
=29	=29	=29	=29
1E-i	2e-i\	2B-\	1g
.	1g	2.e-i\	.
2C/	.	.	2r
.	.	4d\	.
2E-i\	4f\	1c	2g/
.	4e-i\	.	.
2F\	1d	.	2a/
2G\	.	4B-\	2b-i\
.	.	4A/	.
=30	=30	=30	=30
0C	1c	2G/	1.cc
.	.	2A/	.
.	2r	2F/	.
.	2c\	1c	4b-i\
.	.	.	4a/
1G	2d\	.	2.b-i\
.	2e-i\	2B-\	.
.	.	.	4cc\
=31	=31	=31	=31
0F	1.f	0c	1a
.	.	.	2a/
.	4e-i\	.	2a/
.	4d\	.	.
1C	2.e-i\	1c	1g
.	4f\	.	.
=32	=32	=32	=32
0D	1d	0A	2f/
.	.	.	2.a/
.	2d\	.	.
.	.	.	4g/
.	2d\	.	2f/
1A	1c	2r	1e
.	.	2c\	.
=33	=33	=33	=33
1B-	2B-\	2d\	1d
.	2.d\	2G/	.
1G	.	2.B-\	2r
.	4c\	.	.
.	2B-\	.	1g
.	.	4c\	.
1D	1A	1d	.
.	.	.	2f#i/
=34	=34	=34	=34
1E	1G	2c\	0g
.	.	1g	.
1C	2r	.	.
.	1c	2e\	.
1G	.	1d	1r
.	2Bni\	.	.
=35	=35	=35	=35
0C	0c	1.c	0g
.	.	4B-\	.
.	.	4A/	.
1C	1r	1G	1g
=36	=36	=36	=36
0C	0c	1.g	1e
.	.	.	1e
.	.	2e\	.
1F	1c	2f\	1a
.	.	4e\	.
.	.	4d\	.
=37	=37	=37	=37
1.F	1A	2.c\	1.a
.	.	4B-\	.
.	1A	2c\	.
2D\	.	1d	1f
[1D	1d	.	.
.	.	4c\	2d/
.	.	4B-\	.
=38	=38	=38	=38
1D]	1.d	2.A/	1d
.	.	4G/	.
1.d	.	1A	1r
.	1B-	.	.
.	.	1G	1dd
[2B-\	2G/	.	.
=39	=39	=39	=39
2B-\]	1G	1d	2dd\
2G\	.	.	1dd
1G	1r	2d\	.
.	.	1B-	2dd\
1G	1g	.	[1b-i
.	.	2G/	.
=40	=40	=40	=40
2G\	2g\	2G/	2b-\]
1E-i	1g	1.g	2g/
.	.	.	1g
2C/	2g\	.	.
1C	[1e-i	2e-i\	1r
.	.	[2e-i\	.
=41	=41	=41	=41
1.C	2e-\]	2e-\]	1g
.	2c\	2c\	.
.	1c	2.c\	1g
2D\	.	.	.
.	.	4d\	.
1E	1r	4eni\	1g
.	.	4d\	.
.	.	4c\	.
.	.	4B-\	.
=42	=42	=42	=42
0F	1c	1.A	2a/
.	.	.	1cc
.	1c	.	.
.	.	2F/	2a/
1E	1c	1G	1g
=43	=43	=43	=43
2.D\	2d\	2A/	2.f/
.	1f	2.d\	.
4E\	.	.	4g/
2F\	.	.	2a/
.	.	4c\	.
2G\	2d\	2B-\	2b-i\
2A\	1c	2c\	1a
2F\	.	2A/	.
=44	=44	=44	=44
1.G	2.B-\	2.G/	2d/
.	.	.	2.b-i\
.	4c\	4A/	.
.	2d\	2B-\	.
.	.	.	4a/
2C/	2e-i\	2c\	1g
1D	1d	1A	.
.	.	.	2f#i/
=45	=45	=45	=45
2E-i\	2G/	2r	0g
2C/	2.e-i\	1G	.
2.E-i\	.	.	.
.	4d\	.	.
.	1c	2c\	.
4F\	.	.	.
1D	.	2d\	1r
.	2Bni\	2f\	.
=46	=46	=46	=46
1C	0c	1.e	0g
1r	.	.	.
.	.	2c\	.
1G	1r	2.d\	1g
.	.	4e\	.
=47	=47	=47	=47
1.F	0c	0f	0a
2G\	.	.	.
1A	1c	2.e\	1a
.	.	4f\	.
=48	=48	=48	=48
0G	0d	0g	0b
1B-	1d	1G	1dd
=49	=49	=49	=49
1.A	0e	0c	0cc
2A\	.	.	.
2.G\	1g	[1d	1b
4F\	.	.	.
=50	=50	=50	=50
2D\	0f	1d]	1.a
1F	.	.	.
.	.	0c	.
4E\	.	.	2f/
4D\	.	.	.
1C	1e	.	2.g/
.	.	.	4a/
=51	=51	=51	=51
1D	1.d	1A	1.f
2r	.	1B-	.
1G	2B-\	.	2g/
.	2.c\	1A	1a
2F\	.	.	.
.	4d\	.	.
=52	=52	=52	=52
2.G\	1.B-	2r	2r
.	.	2.G/	1d
4F\	.	.	.
2G\	.	.	.
.	.	4F/	.
2E\	2c\	2G/	2e/
1D	1d	1A	1f
=53	=53	=53	=53
2.E\	2r	1G	2g/
.	1G	.	1b
4F\	.	.	.
2.G\	.	1g	.
.	2A/	.	2cc\
4F\	.	.	.
1D	1B-	2f\	1dd
.	.	4e\	.
.	.	4d\	.
=54	=54	=54	=54
2C/	2c\	2.e\	1.g
2.c\	1e	.	.
.	.	4f\	.
.	.	2g\	.
4B-\	.	.	.
2A\	2f\	2c\	2a/
1G	1g	2.d\	1b
.	.	4e\	.
=55	=55	=55	=55
2F\	1.c	2f\	2r
2.A\	.	2e\	2.cc\
.	.	2r	.
4G\	.	.	4b\
2F\	2d\	2A/	2a/
1E	1e	2B-\	1g
.	.	2G/	.
=56	=56	=56	=56
0D	2r	1A	2r
.	2.f\	.	2.a/
.	.	2r	.
.	4e\	.	4g/
.	2d\	2d\	2f/
2.A\	1c	2e\	1e
.	.	2c\	.
4B-\	.	.	.
=57	=57	=57	=57
1B-	2r	2d\	2d/
.	2.d\	2G/	1b-i
1G	.	2.B-\	.
.	4c\	.	.
.	2B-\	.	4a/
.	.	4c\	4g/
1D	1A	[1d	2.f#i/
.	.	.	4e/
=58	=58	=58	=58
0.Gl	0.Gl	2d\]	0.gl
.	.	1e-i	.
.	.	2d\	.
.	.	1dl	.
!!LO:LB:i:g=z
=59||	=59||	=59||	=59||
*>B	*>B	*>B	*>B
*clefF4	*clefGv2	*clefGv2	*clefG2
*k[b-]	*k[b-]	*k[b-]	*k[]
*M2/1	*M2/1	*M2/1	*M2/1
*met(O2)	*met(O2)	*met(O2)	*met(O2)
!	!	!	!LO:TX:Z=8:t=[Canon at the lower fifth]
!!section: Crucifixus
!!!OMD: Crucifixus
[0G	0r	0d	0g
=60.	=60.	=60.	=60.
0G]	0r	1d	0g
.	.	1d	.
=61.	=61.	=61.	=61.
0c	0r	1e	0g
.	.	1e	.
=62	=62	=62	=62
0A	0c	1e	0a
.	.	1e	.
=63.	=63.	=63.	=63.
0F	0c	0f	0a
=64.	=64.	=64.	=64.
0A	0c	1e	0a
.	.	1f	.
=65	=65	=65	=65
[0G	0d	1.g	0b
.	.	4f\	.
.	.	4e\	.
=66.	=66.	=66.	=66.
1G]	0d	2d\	1b
.	.	1g	.
[1G	.	.	1b
.	.	4f\	.
.	.	4e\	.
=67.	=67.	=67.	=67.
1G]	0d	4f\	1.b
.	.	4e\	.
.	.	4d\	.
.	.	4c\	.
1G	.	1d	.
.	.	.	4a/
.	.	.	4b\
=68	=68	=68	=68
1C	0e	1c	0cc
[1c	.	[1A	.
=69.	=69.	=69.	=69.
2c\]	1e	2A/]	1cc
2B-\	.	2B-\	.
1A	1e	[1c	1cc
=70.	=70.	=70.	=70.
0G	1.e	2c\]	1b
.	.	2d\	.
.	.	2.Bni\	1b
.	4d\	.	.
.	4e\	4A/	.
=71	=71	=71	=71
0F	0f	0c	1a
.	.	.	[1cc
=72.	=72.	=72.	=72.
1r	1f	1F	2cc\]
.	.	.	2b\
1F	1f	[1c	1a
=73.	=73.	=73.	=73.
0C	1e	0c]	0g
.	1e	.	.
=74	=74	=74	=74
1D	1d	1A	1f
[1BB-	[1f	1B-	1d
=75.	=75.	=75.	=75.
2BB-/]	2f\]	1F	1.f
2C/	2e\	.	.
2D\	1d	[1B-	.
2E\	.	.	2g/
=76.	=76.	=76.	=76.
0F	0c	1B-]	0a
.	.	1A	.
=77	=77	=77	=77
1G	1B-	0B-	0d
[1B-	1G	.	.
=78.	=78.	=78.	=78.
2B-\]	1.B-	1G	0r
2c\	.	.	.
1d	.	[1B-	.
.	2c\	.	.
=79.	=79.	=79.	=79.
1B-	0d	2B-\]	0r
.	.	2c\	.
[1G	.	[1d	.
=80	=80	=80	=80
1G]	0G	2d\]	0r
.	.	2B-\	.
1E	.	1c	.
=81.	=81.	=81.	=81.
[0D	0r	1r	0a
.	.	[1d	.
=82.	=82.	=82.	=82.
1D]	0r	1d]	1f
1E	.	1B-	[1g
=83	=83	=83	=83
0C	0r	0c	1g]
.	.	.	1e
=84.	=84.	=84.	=84.
0D	0d	1A	0f
.	.	[1B-	.
=85.	=85.	=85.	=85.
0E	1B-	2B-\]	0g
.	.	2A/	.
.	[1c	1G	.
=86	=86	=86	=86
0F	1c]	1F	0a
.	1A	1A	.
=87.	=87.	=87.	=87.
0G	0B-	1G	0d
.	.	1B-	.
=88.	=88.	=88.	=88.
1F	0c	2A/	0r
.	.	1A	.
1E	.	.	.
.	.	2G/	.
=89	=89	=89	=89
0D	0d	0A	0r
=90.	=90.	=90.	=90.
0r	0G	1B-	1r
.	.	1G	[1dd
=91.	=91.	=91.	=91.
0G	0r	1r	1dd]
.	.	1g	1b
=92	=92	=92	=92
0A	0r	1e	0cc
.	.	[1f	.
=93.	=93.	=93.	=93.
1D	1r	1f]	0dd
1G	[1g	1d	.
=94.	=94.	=94.	=94.
1E	1g]	0e	1r
1C	1e	.	1g
=95	=95	=95	=95
1F	0f	1c	1a
1D	.	[1d	1a
=96.	=96.	=96.	=96.
0G	0g	1d]	1b-i
.	.	1B-	1b-i
=97.	=97.	=97.	=97.
1A	1r	0A	0cc
[1F	1c	.	.
=98	=98	=98	=98
1F]	1d	0r	1a
1G	1d	.	[1b-i
=99.	=99.	=99.	=99.
1E-i	1e-i	0B-	1b-]
1G	1e-i	.	1g
=100.	=100.	=100.	=100.
1F	0f	1c	[0a
1D	.	[1d	.
=101	=101	=101	=101
1F	1d	2d\]	1a]
.	.	2c\	.
1G	[1e	2B-\	[1g
.	.	2A/	.
=102.	=102.	=102.	=102.
0E	1e]	1.G	2g/]
.	.	.	2e/
.	1c	.	1g
.	.	2F/	.
=103.	=103.	=103.	=103.
1.D	[0d	[0A	1f
.	.	.	2d/
2E\	.	.	[2f/
=104	=104	=104	=104
1.F	1d]	0A_	4f/]
.	.	.	4g/
.	.	.	1a
.	[1c	.	.
2G\	.	.	4g/
.	.	.	4f/
=105.	=105.	=105.	=105.
0A	2c\]	0A]	4g/
.	.	.	4f/
.	2A/	.	4e/
.	.	.	4d/
.	1c	.	1e
=106.	=106.	=106.	=106.
1D	1B-	0r	1d
1E	2G/	.	1g
.	[2B-\	.	.
=107	=107	=107	=107
1D	4B-\]	0r	2f/
.	4c\	.	.
.	1d	.	1b-i
1G	.	.	.
.	4c\	.	4a/
.	4B-\	.	4g/
=108.	=108.	=108.	=108.
0D	4c\	1r	4a/
.	4B-\	.	4g/
.	4A/	.	4f#i/
.	4G/	.	4e/
.	1A	[1d	1f#i
=109.	=109.	=109.	=109.
1G	1G	1d]	0g
1C	1c	1e	.
=110	=110	=110	=110
[0G	2B-\	2d\	0r
.	1e-i	1g	.
.	4d\	4f\	.
.	4c\	4e\	.
=111.	=111.	=111.	=111.
0G]	4d\	4f\	0r
.	4c\	4e\	.
.	4Bni\	4d\	.
.	4A/	4c\	.
.	1Bni	1d	.
=112.	=112.	=112.	=112.
[0C	0c	1c	0g
.	.	1G	.
=113	=113	=113	=113
1C]	0r	1c	1g
1C	.	1e	1g
=114.	=114.	=114.	=114.
1F	0r	0d	1a
1G	.	.	1b
=115.	=115.	=115.	=115.
1A	0c	1c	[0cc
[1F	.	[1f	.
=116	=116	=116	=116
2F\]	1c	2f\]	1cc]
2G\	.	2e\	.
1A	1c	1f	1cc
=117.	=117.	=117.	=117.
3%2G	1d	0g	0b
3%2E	.	.	.
.	1e	.	.
3%2G	.	.	.
=118.	=118.	=118.	=118.
1F	[0f	0r	1.a
2D\	.	.	.
[2F\	.	.	2a/
=119	=119	=119	=119
4F\]	1f]	0r	1a
4G\	.	.	.
1A	.	.	.
.	1f	.	1a
4G\	.	.	.
4F\	.	.	.
=120.	=120.	=120.	=120.
4G\	0e	0r	0g
4F\	.	.	.
4E\	.	.	.
4D\	.	.	.
2.C#i/	.	.	.
4BBni/	.	.	.
=121.	=121.	=121.	=121.
1.D	1.d	0r	1.f
2E\	2d\	.	2g/
=122	=122	=122	=122
1F	1d	1r	1a
1G	1d	1g	1b
=123.	=123.	=123.	=123.
1A	0c	1e	0cc
1F	.	1f	.
=124.	=124.	=124.	=124.
[0G	1.B-	0d	1r
.	.	.	[1dd
.	2c\	.	.
=125	=125	=125	=125
0G]	1d	0g	2dd\]
.	.	.	2cc\
.	1e	.	1b
=126.	=126.	=126.	=126.
0F	0f	1.c	0a
.	.	2d\	.
=127.	=127.	=127.	=127.
1.c	1r	1.e	1.g
.	[1g	.	.
2B-\	.	2f\	2a/
=128	=128	=128	=128
1G	2g\]	[0g	1b
.	2f\	.	.
1C	1e	.	[1cc
=129.	=129.	=129.	=129.
0G	0d	0g]	2cc\]
.	.	.	2b\
.	.	.	2b\
.	.	.	2a/
=130.	=130.	=130.	=130.
1C	1.c	0e	0cc
1c	.	.	.
.	2d\	.	.
=131	=131	=131	=131
1A	1e	[0c	0r
1F	[1f	.	.
=132.	=132.	=132.	=132.
0C	2f\]	0c]	0g
.	2e\	.	.
.	2e\	.	.
.	2d\	.	.
=133.	=133.	=133.	=133.
1F	0f	1.A	1.a
[1A	.	.	.
.	.	2B-\	2g/
=134	=134	=134	=134
1A]	0r	1c	1a
1D	.	1d	1f
=135.	=135.	=135.	=135.
1r	0c	0A	1e
1A	.	.	1e
=136.	=136.	=136.	=136.
1.B-	1.d	0r	1.d
4A\	2c\	.	2e/
4G\	.	.	.
=137	=137	=137	=137
1F	1d	0r	1f
1G	1B-	.	2d/
.	.	.	[2g/
=138.	=138.	=138.	=138.
0D	1A	0d	2g/]
.	.	.	2f#i/
.	1A	.	2f#i/
.	.	.	2e/
=139.	=139.	=139.	=139.
1.E-i	1.G	1B-	0g
.	.	1e-i	.
2F\	2A/	.	.
=140	=140	=140	=140
1G	1B-	1d	0r
1C	2G/	[1g	.
.	[2c\	.	.
=141.	=141.	=141.	=141.
0G	2c\]	2g\]	0r
.	2Bni\	2f\	.
.	2Bni\	1g	.
.	2A/	.	.
=142.	=142.	=142.	=142.
1C	0c	1e	0r
[1c	.	1c	.
=143	=143	=143	=143
1c]	0r	0d	0r
1Bni	.	.	.
=144.	=144.	=144.	=144.
1.c	0r	1r	0r
.	.	1c	.
4B-\	.	.	.
4A\	.	.	.
=145.	=145.	=145.	=145.
1G	0r	2B-\	0r
.	.	1d	.
1F	.	.	.
.	.	2c\	.
=146	=146	=146	=146
1G	0r	2B-\	0r
.	.	2G/	.
2r	.	1A	.
2c\	.	.	.
=147.	=147.	=147.	=147.
2B-\	0r	1G	0r
1d	.	.	.
.	.	1F	.
2c\	.	.	.
=148.	=148.	=148.	=148.
2B-\	0r	2G/	0r
2G\	.	1g	.
1A	.	.	.
.	.	2f\	.
=149	=149	=149	=149
2G\	0r	2g\	0r
1A	.	2.e\	.
.	.	4d\	.
2F\	.	[2d\	.
=150.	=150.	=150.	=150.
1E	0r	2d\]	0r
.	.	2c\	.
2.D\	.	2B-\	.
.	.	[2d\	.
4E\	.	.	.
=151.	=151.	=151.	=151.
2F\	0r	2d\]	0r
1G	.	4c\	.
.	.	4B-\	.
.	.	2A/	.
2F\	.	2c\	.
=152	=152	=152	=152
1G	0r	2B-\	0r
.	.	1G	.
1C	.	.	.
.	.	2c\	.
=153.	=153.	=153.	=153.
1BB-	0r	2d\	0r
.	.	2f\	.
[1C	.	2e\	.
.	.	[2g\	.
=154.	=154.	=154.	=154.
2C/]	0r	2g\]	0r
2D\	.	2f\	.
2E\	.	2.e\	.
2F\	.	.	.
.	.	8d\L	.
.	.	8c\J	.
=155	=155	=155	=155
1G	0r	1B-	0r
2A\	.	1c	.
[2F\	.	.	.
=156.	=156.	=156.	=156.
2F\]	0r	0d	0r
1G	.	.	.
2F\	.	.	.
=157.	=157.	=157.	=157.
2G\	0r	1r	0r
4F\	.	.	.
4E\	.	.	.
1D	.	1f	.
=158	=158	=158	=158
1C	0r	1e	0r
1G	.	[1d	.
=159.	=159.	=159.	=159.
2r	0r	2d\]	0r
1A	.	2c\	.
.	.	[1c	.
[2F\	.	.	.
=160.	=160.	=160.	=160.
2F\]	0r	2c\]	0r
2D\	.	2B-\	.
2.F\	.	2A/	.
.	.	[2c\	.
4E\	.	.	.
=161	=161	=161	=161
2.C/	0r	4c\]	0r
.	.	4B-\	.
.	.	2.G/	.
4D\	.	.	.
4E\	.	.	.
4F\	.	4A/	.
[2G\	.	4B-\	.
.	.	4c\	.
=162.	=162.	=162.	=162.
2G\]	0r	2d\	0r
2E\	.	1c	.
1D	.	.	.
.	.	2Bni\	.
=163.	=163.	=163.	=163.
2r	0r	1c	0r
2C/	.	.	.
2D\	.	2r	.
2E\	.	2G/	.
=164	=164	=164	=164
2.F\	0r	2.A/	0r
4G\	.	4B-\	.
2A\	.	2c\	.
2B-\	.	2d\	.
=165.	=165.	=165.	=165.
2c\	0r	2c\	0r
2A\	.	1f	.
1G	.	.	.
.	.	2e\	.
=166.	=166.	=166.	=166.
1F	0r	1.f	1.a
1D	.	.	.
.	.	2e\	2g/
=167	=167	=167	=167
0r	0r	1f	1a
.	.	2g\	2b-i\
.	.	[2f\	[2a/
=168.	=168.	=168.	=168.
1r	0r	2f\]	2a/]
.	.	4e\	4g/
.	.	4d\	4f/
1A	.	2.c#i\	1e
.	.	4Bni\	.
=169.	=169.	=169.	=169.
1.B-	1.d	1d	0d
.	.	1r	.
2A\	2c\	.	.
=170	=170	=170	=170
1B-	1d	0r	0r
2c\	2e-i\	.	.
[2B-\	[2d\	.	.
=171.	=171.	=171.	=171.
2B-\]	2d\]	0r	0r
4A\	4c\	.	.
4G\	4B-\	.	.
1F#i	1A	.	.
=172.	=172.	=172.	=172.
[0G	0G	1d	1.dd
.	.	1e	.
.	.	.	2cc\
=173	=173	=173	=173
1G]	0r	1d	1dd
1G	.	[1g	2ee\
.	.	.	[2dd\
=174.	=174.	=174.	=174.
0D	0r	1g]	2dd\]
.	.	.	4cc\
.	.	.	4b\
.	.	1f#i	1a
=175.	=175.	=175.	=175.
1E	1.g	1g	1.g
1C	.	2e\	.
.	2f\	2c\	2a/
=176	=176	=176	=176
1G	1g	1d	1b
2F\	2a\	2r	2cc\
2G\	[2g\	2d\	2b\
=177.	=177.	=177.	=177.
2E\	2g\]	2e\	2g/
2C/	4f\	1.g	1cc
.	4e\	.	.
1G	1d	.	.
.	.	.	2b\
=178.	=178.	=178.	=178.
1.A	1.c	1e	0cc
.	.	1c	.
2B-\	2d\	.	.
=179	=179	=179	=179
1c	1e	0r	0r
2d\	2f\	.	.
[2c\	2e\	.	.
=180.	=180.	=180.	=180.
2c\]	2c\	0r	0r
2A\	1f	.	.
1G	.	.	.
.	2e\	.	.
=181.	=181.	=181.	=181.
1.F	0f	1c	1.a
.	.	1d	.
2F\	.	.	2b\
=182	=182	=182	=182
0F	0r	1c	1cc
.	.	[1f	2dd\
.	.	.	[2cc\
=183.	=183.	=183.	=183.
0C	0r	2f\]	2cc\]
.	.	4e\	4b\
.	.	4d\	4a/
.	.	1e	1g
=184.	=184.	=184.	=184.
0r	1.d	1r	0f
.	.	1f	.
.	2e\	.	.
=185	=185	=185	=185
0r	1f	1d	0r
.	2g\	2e\	.
.	[2f\	[2d\	.
=186.	=186.	=186.	=186.
1r	2f\]	2d\]	1a
.	4e\	4c\	.
.	4d\	4B-\	.
1F	1c	2c\	1a
.	.	2A/	.
=187.	=187.	=187.	=187.
1.G	0B-	1B-	1d
.	.	1G	[1dd
2G\	.	.	.
=188	=188	=188	=188
0G	0r	1r	2dd\]
.	.	.	2cc\
.	.	[1g	1b
=189.	=189.	=189.	=189.
0D	1d	2g\]	0a
.	.	4f#i\	.
.	.	4e\	.
.	1d	1f#i	.
=190.	=190.	=190.	=190.
1.E	1G	1.g	1.g
.	[1g	.	.
2F\	.	2f\	2a/
=191	=191	=191	=191
1G	2g\]	1d	1b
.	2f\	.	.
1C	1e	[1g	[1cc
=192.	=192.	=192.	=192.
0G	0d	1g]	2cc\]
.	.	.	2b\
.	.	[1g	2b\
.	.	.	2a/
=193.	=193.	=193.	=193.
1C	1.c	2g\]	0cc
.	.	2f\	.
1c	.	[1e	.
.	2d\	.	.
=194	=194	=194	=194
1A	1e	2e\]	0r
.	.	2d\	.
1F	[1f	[1c	.
=195.	=195.	=195.	=195.
0G	2f\]	1c]	1r
.	2e\	.	.
.	2e\	1B-	1g
.	2d\	.	.
=196.	=196.	=196.	=196.
0F	0f	1c	1a
.	.	[1f	1d
=197	=197	=197	=197
0D	0r	2f\]	1.f
.	.	2g\	.
.	.	[1a	.
.	.	.	2g/
=198.	=198.	=198.	=198.
0A	1r	2a\]	0e
.	.	2g\	.
.	1c	1a	.
=199.	=199.	=199.	=199.
0B-	1d	1f	1d
.	1G	[1g	[1b-i
=200	=200	=200	=200
0G	1.B-	2g\]	2b-\]
.	.	2f\	2a/
.	.	[1d	[1g
.	2c\	.	.
=201.	=201.	=201.	=201.
0D	0A	0d]	2g/]
.	.	.	2f#i/
.	.	.	2f#i/
.	.	.	2e/
=202.	=202.	=202.	=202.
[0Gl	[0Gl	1d	[0gl
.	.	[1e-i	.
=203	=203	=203	=203
0G_	0G_	1e-]	0g_
.	.	2d\	.
.	.	2c\	.
=204.	=204.	=204.	=204.
0G_	0G_	1.B-	0g_
.	.	2c\	.
=205.	=205.	=205.	=205.
0G]	0G]	0dl	0g]
==	==	==	==
*-	*-	*-	*-
!!!RDF**kern: l=long note in original notation
!!!RDF**kern: i=editorial accidental
!!!RDF**kern: V=start of tuplet marker
!!!RDF**kern: Z=end of tuplet marker
!!!ENC:	Jesse Rodin; Victoria Chang 2012/02/02
!!!END:	2012/02/02/
!!!EED:	Jesse Rodin
!!!EEV:	2012/06/29/
!!attribution-level@Jos: 4 (questionable)
!!!ONB:	Translated from MusicXML and edited on 2012/06/29/ by Craig Sapp
!!muse2ps: T^@{OPR}^u^@{ONM}{. }@{OTL}^C^@{COA}?\n@{SCT}^i2I150v85,85,85,150c140
